X:696
T:Logans Bonnie Woods and Braes
B:The Gesto Collection (1895)
Z:Nigel Gatherer
M:2/4
L:1/16
K:Bm
d2B2 B2AB | dedB A3B | d2B2 B2AB | dBde f4  | 
g2ag f2ed | e2dB A4  | Bcde faef | d2B2 B4 :|
a2B2 B2AB | dedB A4  | a2B2 B2AB | dBde f4  |
g2ag f2ed | e2dB A4  | Bcde faef | d2B2 B4 :|
